X:39
T:As Sure As the Devil’s in Lincoln. TJD.39
M:6/8
L:1/8
Q:1/4=110
S:T.J.Dixon MS1, Lincolnshire, 1798
R:jig
A:Lincolnshire, Holton le Moor
Z:vmp.R.Greig2010
K:F
[V:1]C|F>EF DEF|GAF EFG|ABc BAG|F/ F/z2z2C|!
[V:2]z|F,2A,,B,,2B,,|C,2C,,C,2D,|F,2A, B,D,C,|F,z2z2z|
[V:1]F>EF DEF|GAF EFG|ABc BAG|F/ F/z2z2||!
[V:2]F,2A,,B,,2B,,|C,2C,,C,2D,|F,2A, B,D,C,|F,z2z2||!
[V:1]A|BABD2D|GAGE2C|BABD2D|GAF E2C|!
[V:2]z|B,,2B,,B,,2B,,|C,2C,,C,2E,|B,,2B,,B,,2B,,|B,,G,,C,z2z|!
[V:1]F>EF DEF|GAF EFG|ABc BAG|F/ F/z2z2|]
[V:2]F,2A,,B,,2B,|C,2C,,C,2E,|F,2 A, B,CC,|D,z2z2|]

